X: 1850
T: Sünbülistan Etmiş
C: Şakir Ağa
O: Turkey
F: http://compmusic.upf.edu/node/140
N: buselik--sarki--duyek--sunbulistan_etmis--sakir_aga
N: makam= buselik
N: form= sarki
N: usul= duyek = 8/4
M: 8/4
L: 1/16
K: C    
Q: 1/4=120
%%MIDI tuningsystem comma53
G2 c4 e2 d2 f2 e2 g2  | ^fg a4 gf f_7/8e ed cB c2  | \
w:   |   | 
B2 c4 B2 B2 c2 BA cB  | 
w:   | 
A^G A3B cB AG A4 A4 =G2 c4 e2 d2 f2 e2  | \
w:   | 
g2 ^fg a4 gf f_7/8e ed cB  | 
w:   | 
c2 B2 c4 B2 B2 c2 BA  | cB A^G A3B cB AG A4  | \
w:   |   | 
A4 ^f2 g4 f2 f_7/8e ed  | 
w:   | 
dc cB c3d _7/8ed cB c4  | g4 g3f e^d e2 g2 fe  | \
w:   |   | 
g2 fe g6 ^f_7/8e gf ed  | 
w:   | 
cB c2 d2 e4 e2 ef ef  | g2 a2 f2 g4 fe g3f  | \
w:   |   | 
e^d e2 e2 f2 fa gf fe2=d  | 
w:   | 
e3/2d/ cB c3d _7/8ed cB c6 z2 B2 c4 B2 B3A  | \
w:   | 
cB A^G A3B cB AG A4  | 
w:   | 
e4 g3f e^d e2 g2 fe  | g2 fe g6 ^f_7/8e gf ed  | \
w:   |   | 
cB c2 d2 e4 e2 ef ef  | 
w:   | 
g2 a2 f2 g4 fe g3f  | e^d e2 e2 f2 fa gf fe2=d  | \
w:   |   | 
e3/2d/ cB c3d _7/8ed cB c6 z2 B2 c4 B2 B3A  | 
w:   | 
cB A^G A4 a4 a3g  | f2 g2 g2 gf e4 ^f2 g2  | \
w:   |   | 
g2 _a2 g^f e4 ^e4 ^d2  | 
w:   | 
e6 e2 f6 f2  | g4 fe e6 z2 e^1/4f  | \
w:   |   | 
g_a c'b ag g^1/4f fe b2 ag ^f2  | 
w:   | 
g4 ^fe e6 z2 e2  | f2 ga gf fe2d e3/2d/ cB c3d _ed cB c4 a4 a3g f2 g2 g2 gf =e4 ^f2  | 
w:   |   | 
g2 g2 _a2 g^f e4 ^e4  | ^d2 e6 e2 f6  | \
w:   |   | 
f2 g4 fe e6 z2  | e^1/4f g_a c'b ag gf fe b2 ag  | 
w:   |   | 
^f2 g4 fe e6 z2  | e2 f2 ga gf fe2d e3/2d/ cB  | \
w:   |   | 
c3d _ed cB c4 g4  | 
w:   | 
g3f e^d e2 g2 fe g2 fe  | g6 ^f_7/8e gf ed cB c2  | 
w:   |   | 
d2 e4 e2 ef ef g2 a2  | f2 g4 fe g3f e^d e2  | \
w:   |   | 
e2 f2 fa gf fe2d e3/2d/ cB  | 
w:   | 
c3d _7/8ed cB c6 z2  | B2 c4 B2 B3A cB A^G  | \
w:   |   | 
A3B cB A^G A4 e4  | 
w:   | 
g3f e^d e2 g2 fe g2 fe  | g6 ^f_7/8e gf ed cB c2  | 
w:   |   | 
d2 e4 e2 ef ef g2 a2  | f2 g4 fe g3f e^d e2  | \
w:   |   | 
e2 f2 fa gf fe2d e3/2d/ cB  | 
w:   | 
c3d _7/8ed cB c6 z2  | B2 c4 B2 B3A cB A^G  | \
w:   |   | 
A4 a4 a3g f2 g2  | 
w:   | 
g2 gf e4 ^f2 g2 g2 _a2  | g^f e4 ^e4 ^d2 =e6 e2 =f6 f2 g4  | \
w:   |   | 
fe e6 z2 e^1/4f g_a c'b  | 
w:   | 
_ag g^1/4f fe b2 ag ^f2 g4  | ^fe e6 z2 e2 =f2 ga  | \
w:   |   | 
gf fe2d e3/2d/ cB c3d _ed  | 
w:   | 
cB c4 a4 a3g f2  | g2 g2 gf e4 ^f2 g2 g2  | \
w:   |   | 
_a2 g^f e4 ^e4 ^d2 =e6 e2 =f6 f2 g4 fe e6 z2 e^1/4f ga  | 
w:   | 
c'b _ag g^1/4f fe b2 ag ^f2 g4 fe e6 z2 e2 =f2  | \
w:   | 
ga gf fe2d e3/2d/ cB c3d  | 
w:   | 
_ed cB c4 g4 |
w:   | 


